X:28
T:The Small Hills of Offaly
R:reel
C:Paddy O'Brien (Offaly)
D:Shanachie LP circa 1979, P.O'Brien, D.Sproule, James Kelly
Z:Paul Stewart Cranford (P.S.C.), <http://www.cranfordpub.com>
L:1/8
M:C|
Q:333
K:D
FA|d2 Af dBAF|(3ABA EA cege|d2 Af dBAF|EFGA BE ~E2|
d2 Af dBAF|(3ABA EA cege|d2 Af dBAF|EAGE D2:|
|:FA| d3 f a2 fd|eage cAec|dcdf a2 fd|eage fddA|
defg a2 fd|eage cAGA|(3(Bcd) ed cAGE|FAGE D2:|
% if none of this makes sense, go to http://www.cranfordpub.com/tunes/abcs
